X:5914
T:Sean Reid's Reel
O:england
R:reel
S:as played by piper Bill Peden of Madison, Wisconsin
N:Compare with M. Bergin on {\it Feadoga Stain 2} and M. Cranitch's {\it The Irish Fiddle Book}. Transcribed by Alan Ng
E:12
M:C|
K:G
G|:DG ~G2 BG ~G2|cAFA dGGF|DG ~G2 BG Bd|cAFG AGGF|\
DG ~G2 BG ~G2|cAFA d^cAd|~g3 a gfde|fdcA BG ~G2::\
E:10
dg{a}g{a}g {a}gfde|f2 {g}fe fdef|g2 ga gfde|fdcA BGBd|\
~g3 a gfde|{fg}f2 fe fdef|~g3 a bg{b}ag|fdcA BG {GA}G2:|
